B+W_17P.cube
LUT_3D_SIZE 17
0.0000000000 0.0000000000 0.0000000000
0.0312500000 0.0312500000 0.0312500000
0.0625010000 0.0625010000 0.0625010000
0.0937510000 0.0937510000 0.0937510000
0.1250020000 0.1250020000 0.1250020000
0.1562520000 0.1562520000 0.1562520000
0.1875030000 0.1875030000 0.1875030000
0.2187530000 0.2187530000 0.2187530000
0.2500040000 0.2500040000 0.2500040000
0.2812540000 0.2812540000 0.2812540000
0.3125050000 0.3125050000 0.3125050000
0.3437550000 0.3437550000 0.3437550000
0.3750060000 0.3750060000 0.3750060000
0.4062560000 0.4062560000 0.4062560000
0.4375070000 0.4375070000 0.4375070000
0.4687570000 0.4687570000 0.4687570000
0.5000080000 0.5000080000 0.5000080000
0.0312500000 0.0312500000 0.0312500000
0.0312500000 0.0312500000 0.0312500000
0.0625010000 0.0625010000 0.0625010000
0.0937510000 0.0937510000 0.0937510000
0.1250020000 0.1250020000 0.1250020000
0.1562520000 0.1562520000 0.1562520000
0.1875030000 0.1875030000 0.1875030000
0.2187530000 0.2187530000 0.2187530000
0.2500040000 0.2500040000 0.2500040000
0.2812540000 0.2812540000 0.2812540000
0.3125050000 0.3125050000 0.3125050000
0.3437550000 0.3437550000 0.3437550000
0.3750060000 0.3750060000 0.3750060000
0.4062560000 0.4062560000 0.4062560000
0.4375070000 0.4375070000 0.4375070000
0.4687570000 0.4687570000 0.4687570000
0.5000080000 0.5000080000 0.5000080000
0.0625010000 0.0625010000 0.0625010000
0.0625010000 0.0625010000 0.0625010000
0.0625010000 0.0625010000 0.0625010000
0.0937510000 0.0937510000 0.0937510000
0.1250020000 0.1250020000 0.1250020000
0.1562520000 0.1562520000 0.1562520000
0.1875030000 0.1875030000 0.1875030000
0.2187530000 0.2187530000 0.2187530000
0.2500040000 0.2500040000 0.2500040000
0.2812540000 0.2812540000 0.2812540000
0.3125050000 0.3125050000 0.3125050000
0.3437550000 0.3437550000 0.3437550000
0.3750060000 0.3750060000 0.3750060000
0.4062560000 0.4062560000 0.4062560000
0.4375070000 0.4375070000 0.4375070000
0.4687570000 0.4687570000 0.4687570000
0.5000080000 0.5000080000 0.5000080000
0.0937510000 0.0937510000 0.0937510000
0.0937510000 0.0937510000 0.0937510000
0.0937510000 0.0937510000 0.0937510000
0.0937510000 0.0937510000 0.0937510000
0.1250020000 0.1250020000 0.1250020000
0.1562520000 0.1562520000 0.1562520000
0.1875030000 0.1875030000 0.1875030000
0.2187530000 0.2187530000 0.2187530000
0.2500040000 0.2500040000 0.2500040000
0.2812540000 0.2812540000 0.2812540000
0.3125050000 0.3125050000 0.3125050000
0.3437550000 0.3437550000 0.3437550000
0.3750060000 0.3750060000 0.3750060000
0.4062560000 0.4062560000 0.4062560000
0.4375070000 0.4375070000 0.4375070000
0.4687570000 0.4687570000 0.4687570000
0.5000080000 0.5000080000 0.5000080000
0.1250020000 0.1250020000 0.1250020000
0.1250020000 0.1250020000 0.1250020000
0.1250020000 0.1250020000 0.1250020000
0.1250020000 0.1250020000 0.1250020000
0.1250020000 0.1250020000 0.1250020000
0.1562520000 0.1562520000 0.1562520000
0.1875030000 0.1875030000 0.1875030000
0.2187530000 0.2187530000 0.2187530000
0.2500040000 0.2500040000 0.2500040000
0.2812540000 0.2812540000 0.2812540000
0.3125050000 0.3125050000 0.3125050000
0.3437550000 0.3437550000 0.3437550000
0.3750060000 0.3750060000 0.3750060000
0.4062560000 0.4062560000 0.4062560000
0.4375070000 0.4375070000 0.4375070000
0.4687570000 0.4687570000 0.4687570000
0.5000080000 0.5000080000 0.5000080000
0.1562520000 0.1562520000 0.1562520000
0.1562520000 0.1562520000 0.1562520000
0.1562520000 0.1562520000 0.1562520000
0.1562520000 0.1562520000 0.1562520000
0.1562520000 0.1562520000 0.1562520000
0.1562520000 0.1562520000 0.1562520000
0.1875030000 0.1875030000 0.1875030000
0.2187530000 0.2187530000 0.2187530000
0.2500040000 0.2500040000 0.2500040000
0.2812540000 0.2812540000 0.2812540000
0.3125050000 0.3125050000 0.3125050000
0.3437550000 0.3437550000 0.3437550000
0.3750060000 0.3750060000 0.3750060000
0.4062560000 0.4062560000 0.4062560000
0.4375070000 0.4375070000 0.4375070000
0.4687570000 0.4687570000 0.4687570000
0.5000080000 0.5000080000 0.5000080000
0.1875030000 0.1875030000 0.1875030000
0.1875030000 0.1875030000 0.1875030000
0.1875030000 0.1875030000 0.1875030000
0.1875030000 0.1875030000 0.1875030000
0.1875030000 0.1875030000 0.1875030000
0.1875030000 0.1875030000 0.1875030000
0.1875030000 0.1875030000 0.1875030000
0.2187530000 0.2187530000 0.2187530000
0.2500040000 0.2500040000 0.2500040000
0.2812540000 0.2812540000 0.2812540000
0.3125050000 0.3125050000 0.3125050000
0.3437550000 0.3437550000 0.3437550000
0.3750060000 0.3750060000 0.3750060000
0.4062560000 0.4062560000 0.4062560000
0.4375070000 0.4375070000 0.4375070000
0.4687570000 0.4687570000 0.4687570000
0.5000080000 0.5000080000 0.5000080000
0.2187530000 0.2187530000 0.2187530000
0.2187530000 0.2187530000 0.2187530000
0.2187530000 0.2187530000 0.2187530000
0.2187530000 0.2187530000 0.2187530000
0.2187530000 0.2187530000 0.2187530000
0.2187530000 0.2187530000 0.2187530000
0.2187530000 0.2187530000 0.2187530000
0.2187530000 0.2187530000 0.2187530000
0.2500040000 0.2500040000 0.2500040000
0.2812540000 0.2812540000 0.2812540000
0.3125050000 0.3125050000 0.3125050000
0.3437550000 0.3437550000 0.3437550000
0.3750060000 0.3750060000 0.3750060000
0.4062560000 0.4062560000 0.4062560000
0.4375070000 0.4375070000 0.4375070000
0.4687570000 0.4687570000 0.4687570000
0.5000080000 0.5000080000 0.5000080000
0.2500040000 0.2500040000 0.2500040000
0.2500040000 0.2500040000 0.2500040000
0.2500040000 0.2500040000 0.2500040000
0.2500040000 0.2500040000 0.2500040000
0.2500040000 0.2500040000 0.2500040000
0.2500040000 0.2500040000 0.2500040000
0.2500040000 0.2500040000 0.2500040000
0.2500040000 0.2500040000 0.2500040000
0.2500040000 0.2500040000 0.2500040000
0.2812540000 0.2812540000 0.2812540000
0.3125050000 0.3125050000 0.3125050000
0.3437550000 0.3437550000 0.3437550000
0.3750060000 0.3750060000 0.3750060000
0.4062560000 0.4062560000 0.4062560000
0.4375070000 0.4375070000 0.4375070000
0.4687570000 0.4687570000 0.4687570000
0.5000080000 0.5000080000 0.5000080000
0.2812540000 0.2812540000 0.2812540000
0.2812540000 0.2812540000 0.2812540000
0.2812540000 0.2812540000 0.2812540000
0.2812540000 0.2812540000 0.2812540000
0.2812540000 0.2812540000 0.2812540000
0.2812540000 0.2812540000 0.2812540000
0.2812540000 0.2812540000 0.2812540000
0.2812540000 0.2812540000 0.2812540000
0.2812540000 0.2812540000 0.2812540000
0.2812540000 0.2812540000 0.2812540000
0.3125050000 0.3125050000 0.3125050000
0.3437550000 0.3437550000 0.3437550000
0.3750060000 0.3750060000 0.3750060000
0.4062560000 0.4062560000 0.4062560000
0.4375070000 0.4375070000 0.4375070000
0.4687570000 0.4687570000 0.4687570000
0.5000080000 0.5000080000 0.5000080000
0.3125050000 0.3125050000 0.3125050000
0.3125050000 0.3125050000 0.3125050000
0.3125050000 0.3125050000 0.3125050000
0.3125050000 0.3125050000 0.3125050000
0.3125050000 0.3125050000 0.3125050000
0.3125050000 0.3125050000 0.3125050000
0.3125050000 0.3125050000 0.3125050000
0.3125050000 0.3125050000 0.3125050000
0.3125050000 0.3125050000 0.3125050000
0.3125050000 0.3125050000 0.3125050000
0.3125050000 0.3125050000 0.3125050000
0.3437550000 0.3437550000 0.3437550000
0.3750060000 0.3750060000 0.3750060000
0.4062560000 0.4062560000 0.4062560000
0.4375070000 0.4375070000 0.4375070000
0.4687570000 0.4687570000 0.4687570000
0.5000080000 0.5000080000 0.5000080000
0.3437550000 0.3437550000 0.3437550000
0.3437550000 0.3437550000 0.3437550000
0.3437550000 0.3437550000 0.3437550000
0.3437550000 0.3437550000 0.3437550000
0.3437550000 0.3437550000 0.3437550000
0.3437550000 0.3437550000 0.3437550000
0.3437550000 0.3437550000 0.3437550000
0.3437550000 0.3437550000 0.3437550000
0.3437550000 0.3437550000 0.3437550000
0.3437550000 0.3437550000 0.3437550000
0.3437550000 0.3437550000 0.3437550000
0.3437550000 0.3437550000 0.3437550000
0.3750060000 0.3750060000 0.3750060000
0.4062560000 0.4062560000 0.4062560000
0.4375070000 0.4375070000 0.4375070000
0.4687570000 0.4687570000 0.4687570000
0.5000080000 0.5000080000 0.5000080000
0.3750060000 0.3750060000 0.3750060000
0.3750060000 0.3750060000 0.3750060000
0.3750060000 0.3750060000 0.3750060000
0.3750060000 0.3750060000 0.3750060000
0.3750060000 0.3750060000 0.3750060000
0.3750060000 0.3750060000 0.3750060000
0.3750060000 0.3750060000 0.3750060000
0.3750060000 0.3750060000 0.3750060000
0.3750060000 0.3750060000 0.3750060000
0.3750060000 0.3750060000 0.3750060000
0.3750060000 0.3750060000 0.3750060000
0.3750060000 0.3750060000 0.3750060000
0.3750060000 0.3750060000 0.3750060000
0.4062560000 0.4062560000 0.4062560000
0.4375070000 0.4375070000 0.4375070000
0.4687570000 0.4687570000 0.4687570000
0.5000080000 0.5000080000 0.5000080000
0.4062560000 0.4062560000 0.4062560000
0.4062560000 0.4062560000 0.4062560000
0.4062560000 0.4062560000 0.4062560000
0.4062560000 0.4062560000 0.4062560000
0.4062560000 0.4062560000 0.4062560000
0.4062560000 0.4062560000 0.4062560000
0.4062560000 0.4062560000 0.4062560000
0.4062560000 0.4062560000 0.4062560000
0.4062560000 0.4062560000 0.4062560000
0.4062560000 0.4062560000 0.4062560000
0.4062560000 0.4062560000 0.4062560000
0.4062560000 0.4062560000 0.4062560000
0.4062560000 0.4062560000 0.4062560000
0.4062560000 0.4062560000 0.4062560000
0.4375070000 0.4375070000 0.4375070000
0.4687570000 0.4687570000 0.4687570000
0.5000080000 0.5000080000 0.5000080000
0.4375070000 0.4375070000 0.4375070000
0.4375070000 0.4375070000 0.4375070000
0.4375070000 0.4375070000 0.4375070000
0.4375070000 0.4375070000 0.4375070000
0.4375070000 0.4375070000 0.4375070000
0.4375070000 0.4375070000 0.4375070000
0.4375070000 0.4375070000 0.4375070000
0.4375070000 0.4375070000 0.4375070000
0.4375070000 0.4375070000 0.4375070000
0.4375070000 0.4375070000 0.4375070000
0.4375070000 0.4375070000 0.4375070000
0.4375070000 0.4375070000 0.4375070000
0.4375070000 0.4375070000 0.4375070000
0.4375070000 0.4375070000 0.4375070000
0.4375070000 0.4375070000 0.4375070000
0.4687570000 0.4687570000 0.4687570000
0.5000080000 0.5000080000 0.5000080000
0.4687570000 0.4687570000 0.4687570000
0.4687570000 0.4687570000 0.4687570000
0.4687570000 0.4687570000 0.4687570000
0.4687570000 0.4687570000 0.4687570000
0.4687570000 0.4687570000 0.4687570000
0.4687570000 0.4687570000 0.4687570000
0.4687570000 0.4687570000 0.4687570000
0.4687570000 0.4687570000 0.4687570000
0.4687570000 0.4687570000 0.4687570000
0.4687570000 0.4687570000 0.4687570000
0.4687570000 0.4687570000 0.4687570000
0.4687570000 0.4687570000 0.4687570000
0.4687570000 0.4687570000 0.4687570000
0.4687570000 0.4687570000 0.4687570000
0.4687570000 0.4687570000 0.4687570000
0.4687570000 0.4687570000 0.4687570000
0.5000080000 0.5000080000 0.5000080000
0.5000080000 0.5000080000 0.5000080000
0.5000080000 0.5000080000 0.5000080000
0.5000080000 0.5000080000 0.5000080000
0.5000080000 0.5000080000 0.5000080000
0.5000080000 0.5000080000 0.5000080000
0.5000080000 0.5000080000 0.5000080000
0.5000080000 0.5000080000 0.5000080000
0.5000080000 0.5000080000 0.5000080000
0.5000080000 0.5000080000 0.5000080000
0.5000080000 0.5000080000 0.5000080000
0.5000080000 0.5000080000 0.5000080000
0.5000080000 0.5000080000 0.5000080000
0.5000080000 0.5000080000 0.5000080000
0.5000080000 0.5000080000 0.5000080000
0.5000080000 0.5000080000 0.5000080000
0.5000080000 0.5000080000 0.5000080000
0.5000080000 0.5000080000 0.5000080000
0.0312500000 0.0312500000 0.0312500000
0.0312500000 0.0312500000 0.0312500000
0.0625010000 0.0625010000 0.0625010000
0.0937510000 0.0937510000 0.0937510000
0.1250020000 0.1250020000 0.1250020000
0.1562520000 0.1562520000 0.1562520000
0.1875030000 0.1875030000 0.1875030000
0.2187530000 0.2187530000 0.2187530000
0.2500040000 0.2500040000 0.2500040000
0.2812540000 0.2812540000 0.2812540000
0.3125050000 0.3125050000 0.3125050000
0.3437550000 0.3437550000 0.3437550000
0.3750060000 0.3750060000 0.3750060000
0.4062560000 0.4062560000 0.4062560000
0.4375070000 0.4375070000 0.4375070000
0.4687570000 0.4687570000 0.4687570000
0.5000080000 0.5000080000 0.5000080000
0.0312500000 0.0312500000 0.0312500000
0.0625010000 0.0625010000 0.0625010000
0.0937510000 0.0937510000 0.0937510000
0.1250020000 0.1250020000 0.1250020000
0.1562520000 0.1562520000 0.1562520000
0.1875030000 0.1875030000 0.1875030000
0.2187530000 0.2187530000 0.2187530000
0.2500040000 0.2500040000 0.2500040000
0.2812540000 0.2812540000 0.2812540000
0.3125050000 0.3125050000 0.3125050000
0.3437550000 0.3437550000 0.3437550000
0.3750060000 0.3750060000 0.3750060000
0.4062560000 0.4062560000 0.4062560000
0.4375070000 0.4375070000 0.4375070000
0.4687570000 0.4687570000 0.4687570000
0.5000080000 0.5000080000 0.5000080000
0.5312580000 0.5312580000 0.5312580000
0.0625010000 0.0625010000 0.0625010000
0.0937510000 0.0937510000 0.0937510000
0.0937510000 0.0937510000 0.0937510000
0.1250020000 0.1250020000 0.1250020000
0.1562520000 0.1562520000 0.1562520000
0.1875030000 0.1875030000 0.1875030000
0.2187530000 0.2187530000 0.2187530000
0.2500040000 0.2500040000 0.2500040000
0.2812540000 0.2812540000 0.2812540000
0.3125050000 0.3125050000 0.3125050000
0.3437550000 0.3437550000 0.3437550000
0.3750060000 0.3750060000 0.3750060000
0.4062560000 0.4062560000 0.4062560000
0.4375070000 0.4375070000 0.4375070000
0.4687570000 0.4687570000 0.4687570000
0.5000080000 0.5000080000 0.5000080000
0.5312580000 0.5312580000 0.5312580000
0.0937510000 0.0937510000 0.0937510000
0.1250020000 0.1250020000 0.1250020000
0.1250020000 0.1250020000 0.1250020000
0.1250020000 0.1250020000 0.1250020000
0.1562520000 0.1562520000 0.1562520000
0.1875030000 0.1875030000 0.1875030000
0.2187530000 0.2187530000 0.2187530000
0.2500040000 0.2500040000 0.2500040000
0.2812540000 0.2812540000 0.2812540000
0.3125050000 0.3125050000 0.3125050000
0.3437550000 0.3437550000 0.3437550000
0.3750060000 0.3750060000 0.3750060000
0.4062560000 0.4062560000 0.4062560000
0.4375070000 0.4375070000 0.4375070000
0.4687570000 0.4687570000 0.4687570000
0.5000080000 0.5000080000 0.5000080000
0.5312580000 0.5312580000 0.5312580000
0.1250020000 0.1250020000 0.1250020000
0.1562520000 0.1562520000 0.1562520000
0.1562520000 0.1562520000 0.1562520000
0.1562520000 0.1562520000 0.1562520000
0.1562520000 0.1562520000 0.1562520000
0.1875030000 0.1875030000 0.1875030000
0.2187530000 0.2187530000 0.2187530000
0.2500040000 0.2500040000 0.2500040000
0.2812540000 0.2812540000 0.2812540000
0.3125050000 0.3125050000 0.3125050000
0.3437550000 0.3437550000 0.3437550000
0.3750060000 0.3750060000 0.3750060000
0.4062560000 0.4062560000 0.4062560000
0.4375070000 0.4375070000 0.4375070000
0.4687570000 0.4687570000 0.4687570000
0.5000080000 0.5000080000 0.5000080000
0.5312580000 0.5312580000 0.5312580000
0.1562520000 0.1562520000 0.1562520000
0.1875030000 0.1875030000 0.1875030000
0.1875030000 0.1875030000 0.1875030000
0.1875030000 0.1875030000 0.1875030000
0.1875030000 0.1875030000 0.1875030000
0.1875030000 0.1875030000 0.1875030000
0.2187530000 0.2187530000 0.2187530000
0.2500040000 0.2500040000 0.2500040000
0.2812540000 0.2812540000 0.2812540000
0.3125050000 0.3125050000 0.3125050000
0.3437550000 0.3437550000 0.3437550000
0.3750060000 0.3750060000 0.3750060000
0.4062560000 0.4062560000 0.4062560000
0.4375070000 0.4375070000 0.4375070000
0.4687570000 0.4687570000 0.4687570000
0.5000080000 0.5000080000 0.5000080000
0.5312580000 0.5312580000 0.5312580000
0.1875030000 0.1875030000 0.1875030000
0.2187530000 0.2187530000 0.2187530000
0.2187530000 0.2187530000 0.2187530000
0.2187530000 0.2187530000 0.2187530000
0.2187530000 0.2187530000 0.2187530000
0.2187530000 0.2187530000 0.2187530000
0.2187530000 0.2187530000 0.2187530000
0.2500040000 0.2500040000 0.2500040000
0.2812540000 0.2812540000 0.2812540000
0.3125050000 0.3125050000 0.3125050000
0.3437550000 0.3437550000 0.3437550000
0.3750060000 0.3750060000 0.3750060000
0.4062560000 0.4062560000 0.4062560000
0.4375070000 0.4375070000 0.4375070000
0.4687570000 0.4687570000 0.4687570000
0.5000080000 0.5000080000 0.5000080000
0.5312580000 0.5312580000 0.5312580000
0.2187530000 0.2187530000 0.2187530000
0.2500040000 0.2500040000 0.2500040000
0.2500040000 0.2500040000 0.2500040000
0.2500040000 0.2500040000 0.2500040000
0.2500040000 0.2500040000 0.2500040000
0.2500040000 0.2500040000 0.2500040000
0.2500040000 0.2500040000 0.2500040000
0.2500040000 0.2500040000 0.2500040000
0.2812540000 0.2812540000 0.2812540000
0.3125050000 0.3125050000 0.3125050000
0.3437550000 0.3437550000 0.3437550000
0.3750060000 0.3750060000 0.3750060000
0.4062560000 0.4062560000 0.4062560000
0.4375070000 0.4375070000 0.4375070000
0.4687570000 0.4687570000 0.4687570000
0.5000080000 0.5000080000 0.5000080000
0.5312580000 0.5312580000 0.5312580000
0.2500040000 0.2500040000 0.2500040000
0.2812540000 0.2812540000 0.2812540000
0.2812540000 0.2812540000 0.2812540000
0.2812540000 0.2812540000 0.2812540000
0.2812540000 0.2812540000 0.2812540000
0.2812540000 0.2812540000 0.2812540000
0.2812540000 0.2812540000 0.2812540000
0.2812540000 0.2812540000 0.2812540000
0.2812540000 0.2812540000 0.2812540000
0.3125050000 0.3125050000 0.3125050000
0.3437550000 0.3437550000 0.3437550000
0.3750060000 0.3750060000 0.3750060000
0.4062560000 0.4062560000 0.4062560000
0.4375070000 0.4375070000 0.4375070000
0.4687570000 0.4687570000 0.4687570000
0.5000080000 0.5000080000 0.5000080000
0.5312580000 0.5312580000 0.5312580000
0.2812540000 0.2812540000 0.2812540000
0.3125050000 0.3125050000 0.3125050000
0.3125050000 0.3125050000 0.3125050000
0.3125050000 0.3125050000 0.3125050000
0.3125050000 0.3125050000 0.3125050000
0.3125050000 0.3125050000 0.3125050000
0.3125050000 0.3125050000 0.3125050000
0.3125050000 0.3125050000 0.3125050000
0.3125050000 0.3125050000 0.3125050000
0.3125050000 0.3125050000 0.3125050000
0.3437550000 0.3437550000 0.3437550000
0.3750060000 0.3750060000 0.3750060000
0.4062560000 0.4062560000 0.4062560000
0.4375070000 0.4375070000 0.4375070000
0.4687570000 0.4687570000 0.4687570000
0.5000080000 0.5000080000 0.5000080000
0.5312580000 0.5312580000 0.5312580000
0.3125050000 0.3125050000 0.3125050000
0.3437550000 0.3437550000 0.3437550000
0.3437550000 0.3437550000 0.3437550000
0.3437550000 0.3437550000 0.3437550000
0.3437550000 0.3437550000 0.3437550000
0.3437550000 0.3437550000 0.3437550000
0.3437550000 0.3437550000 0.3437550000
0.3437550000 0.3437550000 0.3437550000
0.3437550000 0.3437550000 0.3437550000
0.3437550000 0.3437550000 0.3437550000
0.3437550000 0.3437550000 0.3437550000
0.3750060000 0.3750060000 0.3750060000
0.4062560000 0.4062560000 0.4062560000
0.4375070000 0.4375070000 0.4375070000
0.4687570000 0.4687570000 0.4687570000
0.5000080000 0.5000080000 0.5000080000
0.5312580000 0.5312580000 0.5312580000
0.3437550000 0.3437550000 0.3437550000
0.3750060000 0.3750060000 0.3750060000
0.3750060000 0.3750060000 0.3750060000
0.3750060000 0.3750060000 0.3750060000
0.3750060000 0.3750060000 0.3750060000
0.3750060000 0.3750060000 0.3750060000
0.3750060000 0.3750060000 0.3750060000
0.3750060000 0.3750060000 0.3750060000
0.3750060000 0.3750060000 0.3750060000
0.3750060000 0.3750060000 0.3750060000
0.3750060000 0.3750060000 0.3750060000
0.3750060000 0.3750060000 0.3750060000
0.4062560000 0.4062560000 0.4062560000
0.4375070000 0.4375070000 0.4375070000
0.4687570000 0.4687570000 0.4687570000
0.5000080000 0.5000080000 0.5000080000
0.5312580000 0.5312580000 0.5312580000
0.3750060000 0.3750060000 0.3750060000
0.4062560000 0.4062560000 0.4062560000
0.4062560000 0.4062560000 0.4062560000
0.4062560000 0.4062560000 0.4062560000
0.4062560000 0.4062560000 0.4062560000
0.4062560000 0.4062560000 0.4062560000
0.4062560000 0.4062560000 0.4062560000
0.4062560000 0.4062560000 0.4062560000
0.4062560000 0.4062560000 0.4062560000
0.4062560000 0.4062560000 0.4062560000
0.4062560000 0.4062560000 0.4062560000
0.4062560000 0.4062560000 0.4062560000
0.4062560000 0.4062560000 0.4062560000
0.4375070000 0.4375070000 0.4375070000
0.4687570000 0.4687570000 0.4687570000
0.5000080000 0.5000080000 0.5000080000
0.5312580000 0.5312580000 0.5312580000
0.4062560000 0.4062560000 0.4062560000
0.4375070000 0.4375070000 0.4375070000
0.4375070000 0.4375070000 0.4375070000
0.4375070000 0.4375070000 0.4375070000
0.4375070000 0.4375070000 0.4375070000
0.4375070000 0.4375070000 0.4375070000
0.4375070000 0.4375070000 0.4375070000
0.4375070000 0.4375070000 0.4375070000
0.4375070000 0.4375070000 0.4375070000
0.4375070000 0.4375070000 0.4375070000
0.4375070000 0.4375070000 0.4375070000
0.4375070000 0.4375070000 0.4375070000
0.4375070000 0.4375070000 0.4375070000
0.4375070000 0.4375070000 0.4375070000
0.4687570000 0.4687570000 0.4687570000
0.5000080000 0.5000080000 0.5000080000
0.5312580000 0.5312580000 0.5312580000
0.4375070000 0.4375070000 0.4375070000
0.4687570000 0.4687570000 0.4687570000
0.4687570000 0.4687570000 0.4687570000
0.4687570000 0.4687570000 0.4687570000
0.4687570000 0.4687570000 0.4687570000
0.4687570000 0.4687570000 0.4687570000
0.4687570000 0.4687570000 0.4687570000
0.4687570000 0.4687570000 0.4687570000
0.4687570000 0.4687570000 0.4687570000
0.4687570000 0.4687570000 0.4687570000
0.4687570000 0.4687570000 0.4687570000
0.4687570000 0.4687570000 0.4687570000
0.4687570000 0.4687570000 0.4687570000
0.4687570000 0.4687570000 0.4687570000
0.4687570000 0.4687570000 0.4687570000
0.5000080000 0.5000080000 0.5000080000
0.5312580000 0.5312580000 0.5312580000
0.4687570000 0.4687570000 0.4687570000
0.5000080000 0.5000080000 0.5000080000
0.5000080000 0.5000080000 0.5000080000
0.5000080000 0.5000080000 0.5000080000
0.5000080000 0.5000080000 0.5000080000
0.5000080000 0.5000080000 0.5000080000
0.5000080000 0.5000080000 0.5000080000
0.5000080000 0.5000080000 0.5000080000
0.5000080000 0.5000080000 0.5000080000
0.5000080000 0.5000080000 0.5000080000
0.5000080000 0.5000080000 0.5000080000
0.5000080000 0.5000080000 0.5000080000
0.5000080000 0.5000080000 0.5000080000
0.5000080000 0.5000080000 0.5000080000
0.5000080000 0.5000080000 0.5000080000
0.5000080000 0.5000080000 0.5000080000
0.5312580000 0.5312580000 0.5312580000
0.5000080000 0.5000080000 0.5000080000
0.5312580000 0.5312580000 0.5312580000
0.5312580000 0.5312580000 0.5312580000
0.5312580000 0.5312580000 0.5312580000
0.5312580000 0.5312580000 0.5312580000
0.5312580000 0.5312580000 0.5312580000
0.5312580000 0.5312580000 0.5312580000
0.5312580000 0.5312580000 0.5312580000
0.5312580000 0.5312580000 0.5312580000
0.5312580000 0.5312580000 0.5312580000
0.5312580000 0.5312580000 0.5312580000
0.5312580000 0.5312580000 0.5312580000
0.5312580000 0.5312580000 0.5312580000
0.5312580000 0.5312580000 0.5312580000
0.5312580000 0.5312580000 0.5312580000
0.5312580000 0.5312580000 0.5312580000
0.5312580000 0.5312580000 0.5312580000
0.0625010000 0.0625010000 0.0625010000
0.0625010000 0.0625010000 0.0625010000
0.0625010000 0.0625010000 0.0625010000
0.0937510000 0.0937510000 0.0937510000
0.1250020000 0.1250020000 0.1250020000
0.1562520000 0.1562520000 0.1562520000
0.1875030000 0.1875030000 0.1875030000
0.2187530000 0.2187530000 0.2187530000
0.2500040000 0.2500040000 0.2500040000
0.2812540000 0.2812540000 0.2812540000
0.3125050000 0.3125050000 0.3125050000
0.3437550000 0.3437550000 0.3437550000
0.3750060000 0.3750060000 0.3750060000
0.4062560000 0.4062560000 0.4062560000
0.4375070000 0.4375070000 0.4375070000
0.4687570000 0.4687570000 0.4687570000
0.5000080000 0.5000080000 0.5000080000
0.0625010000 0.0625010000 0.0625010000
0.0937510000 0.0937510000 0.0937510000
0.0937510000 0.0937510000 0.0937510000
0.1250020000 0.1250020000 0.1250020000
0.1562520000 0.1562520000 0.1562520000
0.1875030000 0.1875030000 0.1875030000
0.2187530000 0.2187530000 0.2187530000
0.2500040000 0.2500040000 0.2500040000
0.2812540000 0.2812540000 0.2812540000
0.3125050000 0.3125050000 0.3125050000
0.3437550000 0.3437550000 0.3437550000
0.3750060000 0.3750060000 0.3750060000
0.4062560000 0.4062560000 0.4062560000
0.4375070000 0.4375070000 0.4375070000
0.4687570000 0.4687570000 0.4687570000
0.5000080000 0.5000080000 0.5000080000
0.5312580000 0.5312580000 0.5312580000
0.0625010000 0.0625010000 0.0625010000
0.0937510000 0.0937510000 0.0937510000
0.1250020000 0.1250020000 0.1250020000
