B+W_17P.cube
LUT_3D_SIZE 5
0.0000000000 0.0000000000 0.0000000000
0.1250020000 0.1250020000 0.1250020000
0.2500040000 0.2500040000 0.2500040000
0.3750060000 0.3750060000 0.3750060000
0.5000080000 0.5000080000 0.5000080000
0.1250020000 0.1250020000 0.1250020000
0.1250020000 0.1250020000 0.1250020000
0.2500040000 0.2500040000 0.2500040000
0.3750060000 0.3750060000 0.3750060000
0.5000080000 0.5000080000 0.5000080000
0.2500040000 0.2500040000 0.2500040000
0.2500040000 0.2500040000 0.2500040000
0.2500040000 0.2500040000 0.2500040000
0.3750060000 0.3750060000 0.3750060000
0.5000080000 0.5000080000 0.5000080000
0.3750060000 0.3750060000 0.3750060000
0.3750060000 0.3750060000 0.3750060000
0.3750060000 0.3750060000 0.3750060000
0.3750060000 0.3750060000 0.3750060000
0.5000080000 0.5000080000 0.5000080000
0.5000080000 0.5000080000 0.5000080000
0.5000080000 0.5000080000 0.5000080000
0.5000080000 0.5000080000 0.5000080000
0.5000080000 0.5000080000 0.5000080000
0.5000080000 0.5000080000 0.5000080000
0.1250020000 0.1250020000 0.1250020000
0.1250020000 0.1250020000 0.1250020000
0.2500040000 0.2500040000 0.2500040000
0.3750060000 0.3750060000 0.3750060000
0.5000080000 0.5000080000 0.5000080000
0.1250020000 0.1250020000 0.1250020000
0.2500040000 0.2500040000 0.2500040000
0.3750060000 0.3750060000 0.3750060000
0.5000080000 0.5000080000 0.5000080000
0.6250100000 0.6250100000 0.6250100000
0.2500040000 0.2500040000 0.2500040000
0.3750060000 0.3750060000 0.3750060000
0.3750060000 0.3750060000 0.3750060000
0.5000080000 0.5000080000 0.5000080000
0.6250100000 0.6250100000 0.6250100000
0.3750060000 0.3750060000 0.3750060000
0.5000080000 0.5000080000 0.5000080000
0.5000080000 0.5000080000 0.5000080000
0.5000080000 0.5000080000 0.5000080000
0.6250100000 0.6250100000 0.6250100000
0.5000080000 0.5000080000 0.5000080000
0.6250100000 0.6250100000 0.6250100000
0.6250100000 0.6250100000 0.6250100000
0.6250100000 0.6250100000 0.6250100000
0.6250100000 0.6250100000 0.6250100000
0.2500040000 0.2500040000 0.2500040000
0.2500040000 0.2500040000 0.2500040000
0.2500040000 0.2500040000 0.2500040000
0.3750060000 0.3750060000 0.3750060000
0.5000080000 0.5000080000 0.5000080000
0.2500040000 0.2500040000 0.2500040000
0.3750060000 0.3750060000 0.3750060000
0.3750060000 0.3750060000 0.3750060000
0.5000080000 0.5000080000 0.5000080000
0.6250100000 0.6250100000 0.6250100000
0.2500040000 0.2500040000 0.2500040000
0.3750060000 0.3750060000 0.3750060000
0.5000080000 0.5000080000 0.5000080000
0.6250100000 0.6250100000 0.6250100000
0.7500110000 0.7500110000 0.7500110000
0.3750060000 0.3750060000 0.3750060000
0.5000080000 0.5000080000 0.5000080000
0.6250100000 0.6250100000 0.6250100000
0.6250100000 0.6250100000 0.6250100000
0.7500110000 0.7500110000 0.7500110000
0.5000080000 0.5000080000 0.5000080000
0.6250100000 0.6250100000 0.6250100000
0.7500110000 0.7500110000 0.7500110000
0.7500110000 0.7500110000 0.7500110000
0.7500110000 0.7500110000 0.7500110000
0.3750060000 0.3750060000 0.3750060000
0.3750060000 0.3750060000 0.3750060000
0.3750060000 0.3750060000 0.3750060000
0.3750060000 0.3750060000 0.3750060000
0.5000080000 0.5000080000 0.5000080000
0.3750060000 0.3750060000 0.3750060000
0.5000080000 0.5000080000 0.5000080000
0.5000080000 0.5000080000 0.5000080000
0.5000080000 0.5000080000 0.5000080000
0.6250100000 0.6250100000 0.6250100000
0.3750060000 0.3750060000 0.3750060000
0.5000080000 0.5000080000 0.5000080000
0.6250100000 0.6250100000 0.6250100000
0.6250100000 0.6250100000 0.6250100000
0.7500110000 0.7500110000 0.7500110000
0.3750060000 0.3750060000 0.3750060000
0.5000080000 0.5000080000 0.5000080000
0.6250100000 0.6250100000 0.6250100000
0.7499960000 0.7499960000 0.7499960000
0.8749980000 0.8749980000 0.8749980000
0.5000080000 0.5000080000 0.5000080000
0.6250100000 0.6250100000 0.6250100000
0.7500110000 0.7500110000 0.7500110000
0.8749980000 0.8749980000 0.8749980000
0.8749980000 0.8749980000 0.8749980000
0.5000080000 0.5000080000 0.5000080000
0.5000080000 0.5000080000 0.5000080000
0.5000080000 0.5000080000 0.5000080000
0.5000080000 0.5000080000 0.5000080000
0.5000080000 0.5000080000 0.5000080000
0.5000080000 0.5000080000 0.5000080000
0.6250100000 0.6250100000 0.6250100000
0.6250100000 0.6250100000 0.6250100000
0.6250100000 0.6250100000 0.6250100000
0.6250100000 0.6250100000 0.6250100000
0.5000080000 0.5000080000 0.5000080000
0.6250100000 0.6250100000 0.6250100000
0.7500110000 0.7500110000 0.7500110000
0.7500110000 0.7500110000 0.7500110000
0.7500110000 0.7500110000 0.7500110000
0.5000080000 0.5000080000 0.5000080000
0.6250100000 0.6250100000 0.6250100000
0.7500110000 0.7500110000 0.7500110000
0.8749980000 0.8749980000 0.8749980000
0.8749980000 0.8749980000 0.8749980000
0.5000080000 0.5000080000 0.5000080000
0.6250100000 0.6250100000 0.6250100000
0.7500110000 0.7500110000 0.7500110000
0.8749980000 0.8749980000 0.8749980000
1.0000000000 1.0000000000 1.0000000000
